usr/share/icons/biglinux-icons-material/scalable/mimetypes/text-x-kotlin.svg

<svg width="24" height="24" viewBox="0 0 24 24" fill="none" xmlns="http://www.w3.org/2000/svg">
<rect x="1" y="1" width="22" height="22" rx="6.6" fill="url(#paint0_radial_21_2039)"/>
<path d="M4 4V20H20L12 12L20 4H4ZM4.72727 4.72727H11.2727L4.72727 11.2727V4.72727ZM12.3011 4.72727H18.2443L4.7272 18.2444V12.3012L12.3011 4.72727ZM11.4857 12.5142L18.2443 19.2727H4.7272L11.4857 12.5142Z" fill="#6D6FFF"/>
<defs>
<radialGradient id="paint0_radial_21_2039" cx="0" cy="0" r="1" gradientUnits="userSpaceOnUse" gradientTransform="translate(17.5 1) rotate(116.565) scale(24.5967)">
<stop stop-color="#F4F4F4"/>
<stop offset="1" stop-color="#BBBBBB"/>
</radialGradient>
</defs>
</svg>

<svg xmlns="http://www.w3.org/2000/svg" width="24" height="24" fill="none"><rect width="22" height="22" x="1" y="1" fill="url(#a)" rx="6.6"/><path fill="#6D6FFF" d="M4 4v16h16l-8-8 8-8H4Zm.727.727h6.546l-6.546 6.546V4.727Zm7.574 0h5.943L4.727 18.244v-5.943l7.574-7.574Zm-.815 7.787 6.758 6.759H4.727l6.759-6.759Z"/><defs><radialGradient id="a" cx="0" cy="0" r="1" gradientTransform="rotate(116.565 8.441 5.908) scale(24.5967)" gradientUnits="userSpaceOnUse"><stop stop-color="#F4F4F4"/><stop offset="1" stop-color="#BBB"/></radialGradient></defs></svg>
